images/hero/java.svg

<svg width="24" height="32" viewBox="0 0 24 32" fill="none" xmlns="http://www.w3.org/2000/svg">
<path fill-rule="evenodd" clip-rule="evenodd" d="M7.82401 24.4438C7.82401 24.4438 6.62156 25.1435 8.68067 25.3799C11.1759 25.6648 12.4505 25.6238 15.1993 25.1038C15.1993 25.1038 15.9231 25.5569 16.9333 25.949C10.7693 28.5902 2.98312 25.7962 7.82401 24.4438ZM7.07052 20.9971C7.07052 20.9971 5.72155 21.9955 7.78248 22.2087C10.448 22.4839 12.5521 22.5064 16.1952 21.8054C16.1952 21.8054 16.6982 22.316 17.4899 22.5949C10.0383 24.7745 1.73914 22.7665 7.07052 20.9971Z" fill="#00ACFF"/>
<path fill-rule="evenodd" clip-rule="evenodd" d="M13.4257 15.1488C14.9452 16.8979 13.0274 18.471 13.0274 18.471C13.0274 18.471 16.8839 16.4805 15.1126 13.9871C13.4588 11.6629 12.1903 10.5082 19.0569 6.52637C19.0569 6.52637 8.27816 9.21726 13.4257 15.1488Z" fill="#EB2E30"/>
<path fill-rule="evenodd" clip-rule="evenodd" d="M21.5769 26.9937C21.5769 26.9937 22.4669 27.7276 20.5964 28.2951C17.0395 29.3725 5.78932 29.6974 2.66435 28.3379C1.54182 27.849 3.64794 27.1713 4.31054 27.0282C5.00161 26.8788 5.39599 26.9059 5.39599 26.9059C4.14678 26.0263 -2.67851 28.6336 1.92967 29.3816C14.4953 31.419 24.8358 28.4644 21.5769 26.9937ZM8.4076 17.4258C8.4076 17.4258 2.68577 18.7852 6.38166 19.2793C7.94271 19.488 11.0523 19.44 13.9511 19.1968C16.3194 18.9981 18.6966 18.5729 18.6966 18.5729C18.6966 18.5729 17.8622 18.9309 17.2575 19.3431C11.4461 20.8717 0.221317 20.1598 3.4531 18.5971C6.18552 17.2753 8.4076 17.4258 8.4076 17.4258ZM18.6728 23.163C24.5799 20.0942 21.8487 17.1445 19.9419 17.542C19.4757 17.6394 19.2665 17.7235 19.2665 17.7235C19.2665 17.7235 19.4404 17.4514 19.7711 17.3344C23.5427 16.0089 26.4428 21.2447 18.5551 23.3182C18.5548 23.3182 18.6457 23.2361 18.6728 23.163Z" fill="#00ACFF"/>
<path fill-rule="evenodd" clip-rule="evenodd" d="M15.1097 0.0957031C15.1097 0.0957031 18.3804 3.36849 12.0067 8.39952C6.8952 12.4368 10.8413 14.738 12.0051 17.3683C9.02091 14.6763 6.832 12.3062 8.30033 10.1008C10.4561 6.86354 16.4294 5.29362 15.1097 0.0957031Z" fill="#EB2E30"/>
<path fill-rule="evenodd" clip-rule="evenodd" d="M8.99003 31.4811C14.6591 31.8436 23.3664 31.2797 23.573 28.5967C23.573 28.5967 23.1766 29.6137 18.8873 30.4205C14.048 31.3314 8.07827 31.2254 4.53882 30.6412C4.53882 30.6412 5.2641 31.2413 8.99003 31.4811Z" fill="#00ACFF"/>
</svg>

<svg xmlns="http://www.w3.org/2000/svg" width="24" height="32" fill="none"><path fill="#00ACFF" fill-rule="evenodd" d="M7.8 24.4s-1.2.7.9 1c2.5.3 3.8.2 6.5-.3 0 0 .7.5 1.7.8-6.1 2.7-14-.1-9-1.5ZM7.1 21s-1.4 1 .7 1.2c2.6.3 4.8.3 8.4-.4 0 0 .5.5 1.3.8C10 24.8 1.7 22.8 7 21Z" clip-rule="evenodd"/><path fill="#EB2E30" fill-rule="evenodd" d="M13.4 15.1c1.5 1.8-.4 3.4-.4 3.4s3.9-2 2.1-4.5c-1.6-2.3-3-3.5 4-7.5 0 0-10.8 2.7-5.7 8.6Z" clip-rule="evenodd"/><path fill="#00ACFF" fill-rule="evenodd" d="M21.6 27s.9.7-1 1.3c-3.6 1-14.8 1.4-18 0-1-.5 1-1.1 1.7-1.3h1.1c-1.3-1-8 1.6-3.5 2.4 12.6 2 23-1 19.7-2.4ZM8.4 17.4s-5.7 1.4-2 1.9c1.5.2 4.7.1 7.6-.1l4.7-.6-1.4.7c-5.9 1.6-17 .9-13.8-.7 2.7-1.3 5-1.2 5-1.2Zm10.3 5.8c5.9-3.1 3.1-6 1.2-5.7l-.6.2.5-.4c3.7-1.3 6.6 4-1.2 6v-.1Z" clip-rule="evenodd"/><path fill="#EB2E30" fill-rule="evenodd" d="M15.1.1s3.3 3.3-3 8.3c-5.2 4-1.3 6.3 0 9-3-2.7-5.3-5-3.8-7.3 2.2-3.2 8.1-4.8 6.8-10Z" clip-rule="evenodd"/><path fill="#00ACFF" fill-rule="evenodd" d="M9 31.5c5.7.3 14.4-.2 14.6-2.9 0 0-.4 1-4.7 1.8-4.9 1-10.8.8-14.4.2 0 0 .8.6 4.5.9Z" clip-rule="evenodd"/></svg>
